X:1
T:Title
%%score 1 2
L:1/8
Q:1/4=95
M:4/4
K:C
V:1 treble nm="Grand Piano, Soprano"
V:2 bass nm="Choir Pad, Kobe, James R. Murray"
V:1
 [EG] [EG]2 [FA] [DB] [Ec]2 [EG] | [CE] [CA]2 [CG] [B,F] [CE]3 | [CE] [DF]2 [DG] [DF] [CE]2 [B,G] | %3
w: By~James~Ramsey~Murray,~1889 * * * * *|||
 [^CA] [DB]2 [DB] [=CA] [B,G]3 | G [Fd]2 [FA] [FB] [Ec]2 [EG] | [Gc] [Fd]2 [FA] [FB] [Ec]3 | %6
w: |||
 [Gc] [Ac]2 [GB] [FA] [EG]2 [Gc] | [Ad] [Ge]2 [Fd] [FB] [Ec]3- | [Ec]4 z4 |] %9
w: |||
V:2
 [C,C] [C,C]2 [C,C] [C,G,] [C,G,]2 [C,C] | [C,C] [F,C]2 [E,G,] [D,G,] [C,G,]3 | %2
 [C,G,] [G,,G,]2 [B,,G,] [G,,G,] [C,G,]2 [E,G,] | [E,G,] [D,G,]2 [D,^F,] [D,F,] G,3 | %4
 G, [G,B,]2 [G,D] [G,D] [C,C]2 [C,C] | [E,C] [G,B,]2 [G,D] [G,D] [C,C]3 | %6
 [E,C] [F,C]2 [F,C] [F,C] [C,C]2 [E,C] | [F,C] [G,C]2 [G,B,] [G,D] [C,C]3- | [C,C]4 z4 |] %9

